build/flags/Switzerland.svg

<svg xmlns="http://www.w3.org/2000/svg" fill="none" viewBox="0 0 28 28" focusable="false"><defs><filter id="Switzerland_svg__a"><feColorMatrix values="0 0 0 0 1 0 0 0 0 1 0 0 0 0 1 0 0 0 1 0"/></filter></defs><mask id="Switzerland_svg__b" width="28" height="20" x="0" y="4" maskUnits="userSpaceOnUse"><g filter="url(#Switzerland_svg__a)"><rect width="28" height="20" y="4" fill="#FFF" rx="3"/><rect width="28" height="20" y="4" stroke="#969696" stroke-opacity="0" stroke-width="0" rx="3"/></g></mask><path fill="none" d="M0 0H28V28H0z"/><rect width="28" height="20" y="4" fill="#FFF" rx="3"/><rect width="28" height="20" y="4" rx="3"/><g mask="url(#Switzerland_svg__b)"><path fill="red" d="M0 4H28V24H0z"/><path d="M0 4H28V24H0z"/><path fill="#FFF" fill-rule="evenodd" d="M12 16L8.33333 16C8.14924 16 8 15.8508 8 15.6667L8 12.3333C8 12.1492 8.14924 12 8.33333 12L12 12L12 8.33333C12 8.14924 12.1492 8 12.3333 8L15.6667 8C15.8508 8 16 8.14924 16 8.33333L16 12L19.6667 12C19.8508 12 20 12.1492 20 12.3333L20 15.6667C20 15.8508 19.8508 16 19.6667 16L16 16L16 19.6667C16 19.8508 15.8508 20 15.6667 20L12.3333 20C12.1492 20 12 19.8508 12 19.6667L12 16Z"/><path d="M8.33333 16C8.14924 16 8 15.8508 8 15.6667L8 12.3333C8 12.1492 8.14924 12 8.33333 12L12 12L12 8.33333C12 8.14924 12.1492 8 12.3333 8L15.6667 8C15.8508 8 16 8.14924 16 8.33333L16 12L19.6667 12C19.8508 12 20 12.1492 20 12.3333L20 15.6667C20 15.8508 19.8508 16 19.6667 16L16 16L16 19.6667C16 19.8508 15.8508 20 15.6667 20L12.3333 20C12.1492 20 12 19.8508 12 19.6667L12 16L8.33333 16Z"/></g></svg>

<svg xmlns="http://www.w3.org/2000/svg" fill="none" viewBox="0 0 28 28" focusable="false"><path fill="none" d="M0 0h28v28H0z"/><rect width="28" height="20" y="4" fill="#FFF" rx="3"/><rect width="28" height="20" y="4" rx="3"/><mask id="Switzerland_svg__a" width="28" height="20" x="0" y="4" mask-type="alpha" maskUnits="userSpaceOnUse"><rect width="28" height="20" y="4" fill="#FFF" rx="3"/><rect width="28" height="20" y="4" stroke="#979797" stroke-opacity="0" stroke-width="0" rx="3"/></mask><g mask="url(#Switzerland_svg__a)"><path fill="red" d="M0 4h28v20H0z"/><path d="M0 4h28v20H0z"/></g><g mask="url(#Switzerland_svg__a)"><path fill="#FFF" fill-rule="evenodd" d="M12 16H8.33c-.19 0-.33-.15-.33-.34v-3.33c0-.19.14-.33.33-.33H12V8.33c0-.19.14-.33.33-.33h3.33c.19 0 .34.14.34.33V12h3.66c.19 0 .34.14.34.33v3.33c0 .19-.15.34-.34.34H16v3.66c0 .19-.15.34-.34.34h-3.33c-.19 0-.33-.15-.33-.34z"/><path d="M8.33 16c-.19 0-.33-.15-.33-.34v-3.33c0-.19.14-.33.33-.33H12V8.33c0-.19.14-.33.33-.33h3.33c.19 0 .34.14.34.33V12h3.66c.19 0 .34.14.34.33v3.33c0 .19-.15.34-.34.34H16v3.66c0 .19-.15.34-.34.34h-3.33c-.19 0-.33-.15-.33-.34V16z"/></g></svg>
